icons/svg/24x24/play previous/filled.svg

<svg xmlns="http://www.w3.org/2000/svg" width="24" height="24" viewBox="0 0 24 24">
  <path fill-rule="evenodd" d="M13.4717,7.1182 C13.1477,6.9442 12.7507,6.9642 12.4457,7.1682 L6.4457,11.1682 C6.1667,11.3532 5.9997,11.6662 5.9997,12.0002 C5.9997,12.3342 6.1667,12.6462 6.4457,12.8322 L12.4457,16.8322 C12.6127,16.9432 12.8057,17.0002 12.9997,17.0002 C13.1617,17.0002 13.3247,16.9612 13.4717,16.8822 C13.7967,16.7082 13.9997,16.3692 13.9997,16.0002 L13.9997,12.0002 L13.9997,8.0002 C13.9997,7.6312 13.7967,7.2922 13.4717,7.1182 M21.4717,7.1182 C21.1477,6.9442 20.7517,6.9642 20.4457,7.1682 L14.4457,11.1682 C14.1667,11.3532 13.9997,11.6662 13.9997,12.0002 C13.9997,12.3342 14.1667,12.6462 14.4457,12.8322 L20.4457,16.8322 C20.6127,16.9432 20.8057,17.0002 20.9997,17.0002 C21.1617,17.0002 21.3247,16.9612 21.4717,16.8822 C21.7967,16.7082 21.9997,16.3692 21.9997,16.0002 L21.9997,8.0002 C21.9997,7.6312 21.7967,7.2922 21.4717,7.1182 M5.9997,5.0002 L5.9997,12.0002 L5.9997,19.0002 C5.9997,19.5532 5.5527,20.0002 4.9997,20.0002 L2.9997,20.0002 C2.4477,20.0002 1.9997,19.5532 1.9997,19.0002 L1.9997,5.0002 C1.9997,4.4472 2.4477,4.0002 2.9997,4.0002 L4.9997,4.0002 C5.5527,4.0002 5.9997,4.4472 5.9997,5.0002"/>
</svg>

<svg width="24" height="24" fill="none" xmlns="http://www.w3.org/2000/svg">
  <path fill-rule="evenodd" clip-rule="evenodd" d="M13.472 7.118a1 1 0 00-1.026.05l-6 4a.998.998 0 000 1.664l6 4A1 1 0 0014 16V8a1 1 0 00-.528-.882zm8 0a1 1 0 00-1.026.05l-6 4a.998.998 0 000 1.664l6 4A1 1 0 0022 16V8a1 1 0 00-.528-.882zM6 5v14a1 1 0 01-1 1H3a1 1 0 01-1-1V5a1 1 0 011-1h2a1 1 0 011 1z" fill="#000"/>
</svg>
